icons/evolvere-blue-folders-flat-vivid-dark-fallback/apps/64/distributor-logo-opensuse.svg

<?xml version="1.0" encoding="UTF-8" standalone="no"?>
<!-- Created with Inkscape (http://www.inkscape.org/) -->

<svg
   xmlns:dc="http://purl.org/dc/elements/1.1/"
   xmlns:cc="http://creativecommons.org/ns#"
   xmlns:rdf="http://www.w3.org/1999/02/22-rdf-syntax-ns#"
   xmlns:svg="http://www.w3.org/2000/svg"
   xmlns="http://www.w3.org/2000/svg"
   xmlns:sodipodi="http://sodipodi.sourceforge.net/DTD/sodipodi-0.dtd"
   xmlns:inkscape="http://www.inkscape.org/namespaces/inkscape"
   width="64"
   height="64"
   id="svg13094"
   version="1.1"
   inkscape:version="0.91+devel r"
   sodipodi:docname="distributor-logo-opensuse.svg">
  <sodipodi:namedview
     id="base"
     pagecolor="#ffffff"
     bordercolor="#666666"
     borderopacity="1.0"
     inkscape:pageopacity="0"
     inkscape:pageshadow="2"
     inkscape:zoom="11.313709"
     inkscape:cx="30.412882"
     inkscape:cy="33.174224"
     inkscape:document-units="px"
     inkscape:current-layer="svg13094"
     showgrid="true"
     inkscape:snap-bbox="true"
     inkscape:bbox-paths="true"
     inkscape:bbox-nodes="true"
     inkscape:snap-bbox-edge-midpoints="true"
     inkscape:snap-bbox-midpoints="true"
     inkscape:object-paths="true"
     inkscape:snap-intersection-paths="true"
     inkscape:object-nodes="true"
     inkscape:snap-smooth-nodes="true"
     inkscape:snap-midpoints="true"
     inkscape:snap-object-midpoints="true"
     inkscape:snap-center="true"
     showguides="false"
     inkscape:guide-bbox="true"
     inkscape:window-width="1920"
     inkscape:window-height="1023"
     inkscape:window-x="-10"
     inkscape:window-y="35"
     inkscape:window-maximized="1"
     inkscape:snap-global="true"
     fit-margin-top="0"
     fit-margin-left="0"
     fit-margin-right="0"
     fit-margin-bottom="0"
     showborder="true"
     inkscape:showpageshadow="false"
     inkscape:snap-page="true">
    <inkscape:grid
       type="xygrid"
       id="grid3075"
       empspacing="5"
       visible="true"
       enabled="true"
       snapvisiblegridlinesonly="true"
       originx="1.6362304e-08px"
       originy="18px" />
    <sodipodi:guide
       orientation="0,1"
       position="-11,30"
       id="guide9148" />
    <sodipodi:guide
       orientation="1,0"
       position="32,70"
       id="guide9150" />
  </sodipodi:namedview>
  <defs
     id="defs13096" />
  <metadata
     id="metadata13099">
    <rdf:RDF>
      <cc:Work
         rdf:about="">
        <dc:format>image/svg+xml</dc:format>
        <dc:type
           rdf:resource="http://purl.org/dc/dcmitype/StillImage" />
        <dc:title></dc:title>
      </cc:Work>
    </rdf:RDF>
  </metadata>
  <path
     id="path6538"
     d="m 0,4 0,30 0,28 2,2 30,0 30,0 2,-2 L 64,34 64,4 32,4 0,4 z"
     style="color:#000000;fill:#4ba437;fill-opacity:1;fill-rule:nonzero;stroke:none;stroke-width:2.28571415;marker:none;visibility:visible;display:inline;overflow:visible;enable-background:accumulate"
     inkscape:connector-curvature="0" />
  <path
     style="color:#000000;fill:#78e455;fill-opacity:1;fill-rule:nonzero;stroke:none;marker:none;visibility:visible;display:inline;overflow:visible;enable-background:accumulate"
     d="M 2 0 L 0 1 L 0 4 L 19.5625 4 L 39.125 4 L 64 4 L 64 1 L 62 0 L 39.125 0 L 19.5625 0 L 2 0 z "
     id="path6688" />
  <path
     d="M 64,6 62,4 64,3 z"
     id="path3028"
     style="fill:#61c047;fill-opacity:1"
     inkscape:connector-curvature="0" />
  <g
     id="g3043"
     inkscape:export-filename="folder.png"
     inkscape:export-xdpi="90"
     inkscape:export-ydpi="90"
     transform="translate(-0.62500009,0.082283)" />
  <g
     id="scalable"
     transform="matrix(1.0385892,0,0,1.0385892,1214.7222,1878.8121)"
     inkscape:label="#g3701"
     style="fill:#ffffff" />
  <path
     style="fill:#89ed68;fill-opacity:1;fill-rule:nonzero"
     d="M 0,3 0,6 2,4 Z"
     id="path4298"
     inkscape:connector-curvature="0"
     sodipodi:nodetypes="cccc" />
  <path
     inkscape:connector-curvature="0"
     style="font-size:20.48839951px;color:#000000;fill:#ffffff;fill-opacity:0.89087659;fill-rule:nonzero;stroke:none;stroke-width:2.28571415;marker:none;visibility:visible;display:inline;overflow:visible;enable-background:accumulate;font-family:TrebuchetMS-Bold"
     d="m 32.15625,11.15625 c -8.761012,0 -13.764711,3.61439 -17.03125,7.65625 2.503518,0.686712 4.217553,1.250953 4.78125,1.4375 0.0068,-0.378501 0.0625,-3.78125 0.0625,-3.78125 l 0.09375,-0.125 0.09375,-0.03125 c 0.769168,0.112199 17.175286,2.530105 24.09375,6.5625 0.855687,0.502866 1.313846,1.051682 1.84375,1.59375 1.911434,1.976321 4.451092,10.174431 4.71875,11.875 l -0.09375,0.1875 c -0.09868,0.0365 -0.372529,0.222565 -0.6875,0.4375 -1.614038,1.128746 -5.349436,3.742372 -10.1875,3.3125 -4.351413,-0.387962 -10.058076,-2.865422 -16.90625,-7.375 0.301447,0.711044 1.730835,4.057247 1.96875,4.625 L 25,37.6875 c 0.992216,0.512331 10.498297,5.34868 15.21875,5.25 3.809347,-0.0757 7.903692,-1.930261 9.53125,-2.90625 l 0.5,-0.09375 c 0.14463,0.113555 0.10712,0.327125 0.0625,0.53125 -0.100027,0.466364 -0.313292,1.321323 -0.46875,1.71875 l -0.125,0.34375 c -0.185197,0.492053 -0.341439,0.966126 -0.6875,1.25 -0.959772,0.87326 -2.508171,1.542054 -4.90625,2.59375 -3.709316,1.620797 -9.726901,2.65746 -15.3125,2.625 -1.9993,-0.04461 -3.925798,-0.275446 -5.625,-0.46875 -3.545748,-0.404184 -6.43542,-0.710571 -8.15625,0.625 4.185144,4.729921 10.311971,7.6875 17.125,7.6875 C 44.772518,56.84375 55,46.617625 55,34 55,21.383734 44.773871,11.15625 32.15625,11.15625 z m 6.03125,12.125 c -1.748625,0.02624 -3.402455,0.638544 -4.6875,1.84375 -1.376125,1.274738 -2.152525,3.029961 -2.21875,4.90625 -0.125717,3.867472 2.912419,7.13661 6.78125,7.28125 1.884393,0.06083 3.627927,-0.620695 5,-1.90625 1.368015,-1.278796 2.18105,-3.001416 2.25,-4.875 0.132468,-3.872879 -2.905668,-7.110766 -6.78125,-7.25 -0.117356,-0.0039 -0.227178,-0.0017 -0.34375,0 z M 38,25.3125 c 0.161442,-0.0099 0.304986,-0.0061 0.46875,0 2.705487,0.09475 4.840664,2.382849 4.75,5.09375 -0.0406,1.304696 -0.605631,2.508933 -1.5625,3.40625 -0.959575,0.890551 -2.217083,1.384353 -3.53125,1.34375 -2.704133,-0.100154 -4.808078,-2.418161 -4.71875,-5.125 0.04195,-1.31011 0.611046,-2.512995 1.5625,-3.40625 C 35.803638,25.842215 36.869922,25.381195 38,25.3125 z m 1.09375,2.625 c -1.173093,1e-6 -2.125,0.65544 -2.125,1.4375 0,0.776795 0.951907,1.40625 2.125,1.40625 1.169143,0 2.09375,-0.628137 2.09375,-1.40625 3e-6,-0.782061 -0.924607,-1.4375 -2.09375,-1.4375 z"
     id="path3877" />
</svg>

<svg xmlns="http://www.w3.org/2000/svg" viewBox="0 0 64 64"><g color="#000"><path d="m0 4v30 28l2 2h30 30l2-2v-28-30h-32-32" fill="#4ba437"/><path d="m2 0l-2 1v3h19.563 19.563 24.875v-3l-2-1h-22.875-19.563-17.563" fill="#78e455"/></g><path d="m64 6l-2-2 2-1z" fill="#61c047"/><path d="m0 3v3l2-2" fill="#89ed68"/><path d="m32.16 11.156c-8.761 0-13.765 3.614-17.03 7.656 2.504.687 4.218 1.251 4.781 1.438.007-.379.063-3.781.063-3.781l.094-.125.094-.031c.769.112 17.18 2.53 24.09 6.563.856.503 1.314 1.052 1.844 1.594 1.911 1.976 4.451 10.174 4.719 11.875l-.094.188c-.099.036-.373.223-.688.438-1.614 1.129-5.349 3.742-10.188 3.313-4.351-.388-10.06-2.865-16.906-7.375.301.711 1.731 4.057 1.969 4.625l.094.156c.992.512 10.498 5.349 15.219 5.25 3.809-.076 7.904-1.93 9.531-2.906l.5-.094c.145.114.107.327.063.531-.1.466-.313 1.321-.469 1.719l-.125.344c-.185.492-.341.966-.688 1.25-.96.873-2.508 1.542-4.906 2.594-3.709 1.621-9.727 2.657-15.313 2.625-1.999-.045-3.926-.275-5.625-.469-3.546-.404-6.435-.711-8.156.625 4.185 4.73 10.312 7.688 17.13 7.688 12.616 0 22.844-10.226 22.844-22.844 0-12.616-10.226-22.844-22.844-22.844m6.03 12.13c-1.749.026-3.402.639-4.688 1.844-1.376 1.275-2.153 3.03-2.219 4.906-.126 3.867 2.912 7.137 6.781 7.281 1.884.061 3.628-.621 5-1.906 1.368-1.279 2.181-3 2.25-4.875.132-3.873-2.906-7.111-6.781-7.25-.117-.004-.227-.002-.344 0m-.188 2.031c.161-.01.305-.006.469 0 2.705.095 4.841 2.383 4.75 5.094-.041 1.305-.606 2.509-1.563 3.406-.96.891-2.217 1.384-3.531 1.344-2.704-.1-4.808-2.418-4.719-5.125.042-1.31.611-2.513 1.563-3.406.835-.783 1.901-1.244 3.03-1.313m1.094 2.625c-1.173 0-2.125.655-2.125 1.438 0 .777.952 1.406 2.125 1.406 1.169 0 2.094-.628 2.094-1.406 0-.782-.925-1.438-2.094-1.438" fill="#fff" fill-opacity=".891" color="#000"/></svg>
